!!!OTL: Der Feldjaeger.
!!!OTL-incipit: MIT HOERNERSCHALL UND LUSTGESANG
!!!COM: Volksweise
!!!ARE: Europa, Mitteleuropa, Deutschland
!!!SCT: F0625
!!!TXL: @@DE
!!!YEM: Copyright 1995, estate of Helmut Schaffrath.
**kern	**text	**text
*ICvox	*	*
*clefG2	*	*
*M6/8	*	*
*k[b-e-a-]	*	*
*E-:	*	*
!LO:TX:a:t=Munter.	!	!
!LO:TX:a:t=P:only the highest voice encoded:problem	!	!
{8b-/	1._Mit	2._Gewohnt
=1	=1	=1
4ee-/	Hörnerſchal	.
8ee-/	.	ſind
4ee-/	.	wir
8b-/	und	von
=2	=2	=2
4g	Luſt-	Ju-
8g	-ge-	-gend
4g}	-fang	auf
{8g	als	an
=3	=3	=3
(8b-/L	ging	Feld-
8a-J)	.	.
8g	es	-und
(8b-L	froh	Waldde-
8a-J)	.	.
8g	ʒur	.
=4	=4	=4
[>4.f	Jagd,	-ſchwer;
8f]	.	.
8r}	.	.
{8g	ſo	wir
=5	=5	=5
4f	ʒiehn	klimmen
8g	wir	.
4a-	Ja-	Berg
8f	-ger	und
=6	=6	=6
4g	1._wohl-	2._Fels
8a-	-ge-	em-
4b-/}	-muth,	-por,
{8g	wenn's	wir
=7	=7	=7
4f	Noth	wa-
8g	dem	-ten
4a-	Va-	friſch
8f	-ter-	durch
=8	=8	=8
4g	-lan-	Sumpf
8a-	-de	und
4b-/}	thut,	Moor,
{8e-	hin-	durch
=9	=9	=9
4e-	-aus	Schilf
8g	in's	und
4g	Feld	Dorn
8b-/	der	ein-
=10	=10	=10
4.ee-}	Schlacht,	-her,
{4.cc/	hin-	durch
=11	=11	=11
8b-/L	-1._aus	2._Schilf
8ccJ	.	.
8b-	in's	und
8a-/L	Feld	Dorn
8gJ	.	.
8f	der	ein-
=12	=12	=12
[>4.e-	Schlacht.	-her.
8e-]	.	.
8r}	.	.
==	==	==
!!!AGN: Staende -, Jaeger - Lied; Soldaten - Lied
!!!ONB: ESAC (Essen Associative Code) Database: FINK
!!!AMT: compound duple
!!!AIN: vox
!!!EED: Helmut Schaffrath
!!!EEV: 1.0
!!!RDF**kern: > = above
!!!GTL: Soldaten- und Jaegerlieder
!!Text: G. A. Bürger
!!!source: Musikalischer Hausschatz der Deutschen. Eine Sammlung von über 1000 Liedern und Gesängen mit Singstimmen und Klavierbegleitung. Leipzig, Litterarisches Verlags-Haus.
!!!page: 410
!!!URL-scan: https://www.digitale-sammlungen.de/en/view/bsb11144622?page=390
!!!ENC: Anna Maria Matuszewska
!!!EEV: 2024/08/05
*-	*-	*-
